!!! OTL: Berkowitz439
!!! Chapter: 1
!!! Section: IV
!!! Page: 109
!!! Mode: 
!!! Encoder: DJB
**kern
*staff1
*I"Piano
=1-
*clefG2
*k[b-e-]
*g:
*M2/4
8f#/L
8a/J
8cc\L
8ee-\J
=2
8dd\L
8b-\J
4g/
=3
8f#/L
8a/J
8cc\L
8ee-\J
=4
4dd\
8g/L
8f/J
=5
8en/L
8g/J
8b-\L
8dd\J
=6
8cc\L
8a\J
4f/
=7
8en/L
8g/J
8b-\L
8dd\J
=8
2cc\
=9
8cc\L
8a\J
8f#/L
8d/J
=10
8g/L
8a/J
4b-\
=11
8b-/L
8g/J
8e-/L
8c#/J
=12
4d/
4ee-\
=13
!!linebreak:original
8dd\L
8b-\J
8a/L
8g/J
=14
8f#/L
8a/J
4e-/
=15
8d/L
8cc/J
8b-/L
8a/J
=16
4g/
4r
==
*-
